public/Speed.svg

<svg fill="none" height="72" viewBox="0 0 88 72" width="88" xmlns="http://www.w3.org/2000/svg" xmlns:xlink="http://www.w3.org/1999/xlink"><radialGradient id="a" cx="0" cy="0" gradientTransform="matrix(64.00007156 -70.99999459 70.6191747 63.65679688 11.8 71)" gradientUnits="userSpaceOnUse" r="1"><stop offset="0" stop-color="#14e775"/><stop offset="1" stop-color="#1dca77"/></radialGradient><path d="m43.8 71c17.5567 0 32-14.4636 32-32.0448 0-6.7818-2.1504-13.1136-5.8094-18.2884l2.5356-2.5391c.8666-.8679 1.316-1.8321 1.316-2.8928 0-2.0891-1.6369-3.7283-3.7232-3.7283-1.2517 0-2.1183.3535-3.017 1.1892l-2.2789 2.2177c-4.7181-4.1462-10.6239-6.94247-17.1394-7.746v-3.27841c0-2.1856-1.7332-3.88909-3.8837-3.88909-2.0862 0-3.8836 1.70349-3.8836 3.88909v3.27841c-15.7593 1.92847-28.1164 15.5242-28.1164 31.7877 0 17.5812 14.4434 32.0448 32 32.0448zm0-26.2594c-3.1775 0-5.7131-2.5713-5.7131-5.7533 0-2.0249 1.0592-3.7284 2.9208-4.8854v-13.9815c0-1.5749 1.2196-2.7963 2.7923-2.7963 1.5728 0 2.7924 1.2214 2.7924 2.7963v14.0136c1.8616 1.0928 2.9208 2.7963 2.9208 4.8533 0 3.2141-2.5356 5.7533-5.7132 5.7533z" fill="url(#a)"/></svg>

<svg width="88" height="72" viewBox="0 0 88 72" fill="none" xmlns="http://www.w3.org/2000/svg">
<path d="M43.8 71C61.3567 71 75.8 56.5364 75.8 38.9552C75.8 32.1734 73.6496 25.8416 69.9906 20.6668L72.5262 18.1277C73.3928 17.2598 73.8422 16.2956 73.8422 15.2349C73.8422 13.1458 72.2053 11.5066 70.119 11.5066C68.8673 11.5066 68.0007 11.8601 67.102 12.6958L64.8231 14.9135C60.105 10.7673 54.1992 7.97103 47.6837 7.1675V3.88909C47.6837 1.70349 45.9505 0 43.8 0C41.7138 0 39.9164 1.70349 39.9164 3.88909V7.1675C24.1571 9.09597 11.8 22.6917 11.8 38.9552C11.8 56.5364 26.2434 71 43.8 71ZM43.8 44.7406C40.6225 44.7406 38.0869 42.1693 38.0869 38.9873C38.0869 36.9624 39.1461 35.2589 41.0077 34.1019V20.1204C41.0077 18.5455 42.2273 17.3241 43.8 17.3241C45.3728 17.3241 46.5924 18.5455 46.5924 20.1204V34.134C48.454 35.2268 49.5132 36.9303 49.5132 38.9873C49.5132 42.2014 46.9776 44.7406 43.8 44.7406Z" fill="url(#paint0_radial)"/>
<defs>
<radialGradient id="paint0_radial" cx="0" cy="0" r="1" gradientUnits="userSpaceOnUse" gradientTransform="translate(11.8 71) rotate(-47.9682) scale(95.5877 95.075)">
<stop stop-color="#14E775"/>
<stop offset="1" stop-color="#1DCA77"/>
</radialGradient>
</defs>
</svg>
